X:9904
T:Los Pajarillos
C:Tradicional
S:Música Tradicional Asturiana, (C) Tello & Tito. Asturies, 2001.
S:http://pagina.de/MusTradAst <telloytito@asturies.org>
A:Asturies
B:Musicología Asturiana - La Canción Tradicional, Modesto González Cobas
Z:La Canción Tradicional, M.G.C.
M:2/4
L:1/8
Q:1/4=100
W:cantan los pajarillos en la torre
W:cantan y vanse y no se para donde
K:Fm
c
|: cd cB|AB BB|(AG) FF|AA BG|F=E FG|F2 F2-|F2 z c :|


